(1001)
N10 G90 G94
N11 G18
N12 G21
N13 G28 G91 X0.
N14 G28 G91 Z0.
N15 G90

(FACE1)
(CHANGE TO T1 ON REAR TOOL POST)
N16 M0
N17 T1
(SCLCR121H09)
N18 G54
N19 S600 M3
N20 G94
N21 G0 X40.996 Z5.6
N22 G0 Z1.414
N23 X30.996
N24 G1 X27.41 F60.
N25 X25.996 Z0.
N26 X0.6
N27 X2.014 Z1.414
N28 G0 X40.996
N29 Z5.6

N30 M5
N31 G28 G91 X0.
N32 G28 G91 Z0.
N33 G90
N34 M30
